X: 431
T: Fangbeihou deng meimei shi kelian
L: 1/8
M: 2/4
K: D
de2A/ A/ [I:setbarnb 1]| 
^G AE2 | 
d B A ^G | 
E4 | 
de2A/ A/ | 
^G AE2 | 
B A E D | 
A,4 |]

@@@ Tune index: 9305
